X:1
T:Polska efter Johan Petter Landholm
R:Polska
Z:Jonas Brunskog, 23/8 2008
O:Hjorted, Smland
S:efter Johan Petter Landholm
S:efter Gsta Klemming
B:50 Smlndska ltar
M:3/4
L:1/16
K:G
|:d2g2 d2dc [DB]4|c2Bc (dc)BA G4|G2GF G2A2 B2c2|d2d2 (de)dB [Dd]4|
d2g2 d2dc [DB]4|c2Bc (dc)BA G4|G2GF G2A2 B2c2|(dc)AF (A2G2) G4:|
|:d2B2 B2d2 (ed)cB|(c2A2) A2c2 (dc)Bc|(d2B2) B2d2 (ed)cB|(c2A2) A2c2 (dc)BA|
G2GF G2A2 B2c2|d2d2 d2ef g4|f2gf e2fe d2B2|(dc)AF (A2G2) G4:|
